svgs/light/file-binary.svg

<svg xmlns="http://www.w3.org/2000/svg" viewBox="0 0 384 512"><!--! Font Awesome Pro 6.3.0 by @fontawesome - https://fontawesome.com License - https://fontawesome.com/license (Commercial License) Copyright 2023 Fonticons, Inc. --><path d="M365.3 125.3l-106.5-106.5C246.7 6.742 230.5 0 213.5 0H64C28.65 0 0 28.65 0 64l.0065 384c0 35.35 28.65 64 64 64H320c35.35 0 64-28.65 64-64V170.5C384 153.5 377.3 137.3 365.3 125.3zM224 34.08c4.477 1.566 8.666 3.846 12.12 7.299l106.5 106.5C346.1 151.3 348.4 155.5 349.9 160H240C231.2 160 224 152.8 224 144V34.08zM352 448c0 17.64-14.36 32-32 32H64c-17.64 0-32-14.36-32-32V64c0-17.64 14.36-32 32-32h128v112C192 170.5 213.5 192 240 192H352V448zM224 272C224 280.8 231.2 288 240 288H256v96h-16c-8.844 0-16 7.156-16 16s7.156 16 16 16h64c8.844 0 16-7.156 16-16S312.8 384 304 384H288V272C288 263.2 280.8 256 272 256h-32C231.2 256 224 263.2 224 272zM144 256h-32C85.53 256 64 277.5 64 304v64C64 394.5 85.53 416 112 416h32c26.47 0 48-21.53 48-48v-64C192 277.5 170.5 256 144 256zM160 368C160 376.8 152.8 384 144 384h-32C103.2 384 96 376.8 96 368v-64C96 295.2 103.2 288 112 288h32C152.8 288 160 295.2 160 304V368z"/></svg>

<svg xmlns="http://www.w3.org/2000/svg" viewBox="0 0 384 512"><!--! Font Awesome Pro 6.4.0 by @fontawesome - https://fontawesome.com License - https://fontawesome.com/license (Commercial License) Copyright 2023 Fonticons, Inc. --><path d="M320 480H64c-17.7 0-32-14.3-32-32V64c0-17.7 14.3-32 32-32H192V144c0 26.5 21.5 48 48 48H352V448c0 17.7-14.3 32-32 32zM240 160c-8.8 0-16-7.2-16-16V32.5c2.8 .7 5.4 2.1 7.4 4.2L347.3 152.6c2.1 2.1 3.5 4.6 4.2 7.4H240zM64 0C28.7 0 0 28.7 0 64V448c0 35.3 28.7 64 64 64H320c35.3 0 64-28.7 64-64V163.9c0-12.7-5.1-24.9-14.1-33.9L254.1 14.1c-9-9-21.2-14.1-33.9-14.1H64zm48 256c-26.5 0-48 21.5-48 48v64c0 26.5 21.5 48 48 48h32c26.5 0 48-21.5 48-48V304c0-26.5-21.5-48-48-48H112zM96 304c0-8.8 7.2-16 16-16h32c8.8 0 16 7.2 16 16v64c0 8.8-7.2 16-16 16H112c-8.8 0-16-7.2-16-16V304zm144-48c-8.8 0-16 7.2-16 16s7.2 16 16 16h16v96H240c-8.8 0-16 7.2-16 16s7.2 16 16 16h32 32c8.8 0 16-7.2 16-16s-7.2-16-16-16H288V272c0-8.8-7.2-16-16-16H240z"/></svg>
